X: 9165
T: Dalaigh's
R: polka
M: 2/4
K: Adorian
|:eA Ad|ed Bd|eA AB/A/|G2 (3ABd|
eA Ad|ed Bd|(4efgf cB|A2 A/ z:|
ed ef|ga gf|ed ef|a2 gf|
ed ef|ga gf|dB gB|A2- A z:|

